symbolia-arc/scalable/actions/timepp-pin.svg

<?xml version="1.0" encoding="UTF-8" standalone="no"?>
<svg
   enable-background="new 0 0 24 24"
   height="24"
   viewBox="0 0 24 24"
   width="24"
   version="1.1"
   id="svg8"
   sodipodi:docname="timepp-pin-symbolic.svg"
   inkscape:version="1.1 (c68e22c387, 2021-05-23)"
   xmlns:inkscape="http://www.inkscape.org/namespaces/inkscape"
   xmlns:sodipodi="http://sodipodi.sourceforge.net/DTD/sodipodi-0.dtd"
   xmlns="http://www.w3.org/2000/svg"
   xmlns:svg="http://www.w3.org/2000/svg">
  <defs
     id="defs12" />
  <sodipodi:namedview
     id="namedview10"
     pagecolor="#ffffff"
     bordercolor="#666666"
     borderopacity="1.0"
     inkscape:pageshadow="2"
     inkscape:pageopacity="0.0"
     inkscape:pagecheckerboard="0"
     showgrid="false"
     inkscape:zoom="5.3432465"
     inkscape:cx="-52.964055"
     inkscape:cy="28.259973"
     inkscape:window-width="1904"
     inkscape:window-height="1000"
     inkscape:window-x="26"
     inkscape:window-y="23"
     inkscape:window-maximized="0"
     inkscape:current-layer="svg8" />
  <g
     id="g2"
     transform="translate(20)"
     style="fill:#B9D4F0;fill-opacity:0.265135" />
  <path fill="#B9D4F0"
     id="path4"
     style="fill:#B9D4F0;fill-opacity:0.975115"
     d="M 7 2 C 6.45 2 6 2.45 6 3 C 6 3.55 6.45 4 7 4 L 8 4 L 8 9 C 8 10.38 7.0707812 11.540625 5.8007812 11.890625 C 5.3407813 12.020625 5 12.399141 5 12.869141 L 5 13 C 5 13.55 5.45 14 6 14 L 10.980469 14 L 11 21 C 11 21.55 11.45 22 12 22 C 12.55 22 13 21.55 13 21 L 12.980469 14 L 18 14 C 18.55 14 19 13.55 19 13 L 19 12.869141 C 19 12.399141 18.659219 12.020625 18.199219 11.890625 C 16.929219 11.540625 16 10.38 16 9 L 16 4 L 17 4 C 17.55 4 18 3.55 18 3 C 18 2.45 17.55 2 17 2 L 7 2 z M 10.009766 4 L 14.009766 4 L 14.009766 9 C 14.009766 10.12 14.379766 11.16 15.009766 12 L 9.0097656 12 C 9.6597656 11.14 10.009766 10.1 10.009766 9 L 10.009766 4 z " />
</svg>

<svg xmlns="http://www.w3.org/2000/svg" enable-background="new 0 0 24 24" height="24" viewBox="0 0 24 24" width="24"><g></g><g><path fill="#B9D4F0" d="M19,12.87c0-0.47-0.34-0.85-0.8-0.98C16.93,11.54,16,10.38,16,9V4l1,0 c0.55,0,1-0.45,1-1c0-0.55-0.45-1-1-1H7C6.45,2,6,2.45,6,3c0,0.55,0.45,1,1,1l1,0v5c0,1.38-0.93,2.54-2.2,2.89 C5.34,12.02,5,12.4,5,12.87V13c0,0.55,0.45,1,1,1h4.98L11,21c0,0.55,0.45,1,1,1c0.55,0,1-0.45,1-1l-0.02-7H18c0.55,0,1-0.45,1-1 V12.87z" fill-rule="evenodd"/></g></svg>
